src/assets/twitter_grey.svg

<svg width="20" height="16" viewBox="0 0 20 16" fill="none" xmlns="http://www.w3.org/2000/svg">
<path id="Vector" d="M19.3222 2.22528C18.6057 2.53658 17.8477 2.74167 17.072 2.83407C17.8872 2.35674 18.5002 1.5984 18.7961 0.701294C18.0254 1.15196 17.1836 1.46817 16.3068 1.63637C15.9376 1.24942 15.4936 0.941592 15.0017 0.731593C14.5098 0.521594 13.9803 0.413813 13.4455 0.414802C11.2801 0.414802 9.5277 2.14172 9.5277 4.27051C9.52616 4.56662 9.56009 4.86185 9.62877 5.14989C8.07601 5.0771 6.55555 4.68099 5.16465 3.98691C3.77375 3.29283 2.54304 2.31606 1.55127 1.1191C1.20333 1.70566 1.01932 2.37491 1.01847 3.0569C1.01847 4.39387 1.716 5.57565 2.76926 6.26801C2.14523 6.2532 1.53399 6.08803 0.987433 5.78654V5.83429C0.987433 7.70445 2.34031 9.26026 4.13089 9.6144C3.79418 9.70416 3.4472 9.74964 3.09872 9.74969C2.85146 9.75012 2.60475 9.72613 2.3622 9.67806C2.85998 11.21 4.30876 12.3241 6.02493 12.356C4.63042 13.4307 2.91832 14.0116 1.15774 14.0073C0.845228 14.0068 0.53301 13.9882 0.222656 13.9516C2.0137 15.0953 4.09566 15.7002 6.2207 15.6944C13.4371 15.6944 17.3796 9.81733 17.3796 4.72015C17.3796 4.55303 17.3752 4.38591 17.3673 4.22277C18.1325 3.67845 18.7945 3.00203 19.3222 2.22528Z" fill="#2E4049"/>
</svg>

<svg width="20" height="16" fill="none" xmlns="http://www.w3.org/2000/svg"><path d="M19.322 2.225a8.03 8.03 0 0 1-2.25.61A3.88 3.88 0 0 0 18.796.7c-.77.451-1.612.767-2.49.935a3.944 3.944 0 0 0-2.86-1.221c-2.166 0-3.918 1.727-3.918 3.856-.002.296.032.59.1.879a11.17 11.17 0 0 1-8.077-4.03 3.808 3.808 0 0 0-.533 1.937c0 1.337.698 2.519 1.751 3.211a3.88 3.88 0 0 1-1.782-.481v.047c0 1.87 1.353 3.426 3.144 3.78a4.01 4.01 0 0 1-1.032.136c-.248 0-.494-.024-.737-.072.498 1.532 1.947 2.646 3.663 2.678a7.942 7.942 0 0 1-5.802 1.596 11.088 11.088 0 0 0 5.998 1.742c7.216 0 11.159-5.877 11.159-10.974 0-.167-.005-.334-.013-.497a7.898 7.898 0 0 0 1.955-1.998Z" fill="#2E4049"/></svg>
